docs/img/flag-uz.svg

<svg width="76" height="54" viewBox="0 0 76 54" fill="none" xmlns="http://www.w3.org/2000/svg">
<path d="M0 18.6875H76V35.3125H0V18.6875Z" fill="#E6E7E8"/>
<path d="M64.125 0.875H11.875C4.00544 0.875 0 6.72344 0 13.9375V18.6875H76V13.9375C76 6.72344 71.9946 0.875 64.125 0.875Z" fill="#1B75BB"/>
<path d="M0 40.0625C0 47.2766 4.00544 53.125 11.875 53.125H64.125C71.9946 53.125 76 47.2766 76 40.0625V35.3125H0V40.0625Z" fill="#29B473"/>
<path d="M13.5977 15.4938C12.988 15.4938 12.3844 15.3737 11.8212 15.1403C11.258 14.9069 10.7463 14.5649 10.3153 14.1337C9.88434 13.7025 9.54256 13.1906 9.30948 12.6273C9.0764 12.064 8.95659 11.4603 8.9569 10.8507C8.95659 9.61944 9.44531 8.43849 10.3156 7.56755C11.1859 6.69661 12.3664 6.20698 13.5977 6.20635C13.7734 6.20635 13.9492 6.21941 14.119 6.2396C13.2946 5.74865 12.3531 5.48898 11.3937 5.48792C9.9909 5.51744 8.65556 6.09541 7.67394 7.0979C6.69232 8.1004 6.14258 9.4476 6.14258 10.8507C6.14258 12.2537 6.69232 13.6009 7.67394 14.6034C8.65556 15.6059 9.9909 16.1839 11.3937 16.2134C12.353 16.2122 13.2943 15.953 14.119 15.4629C13.9492 15.4807 13.7746 15.4938 13.5977 15.4938Z" fill="#E6E7E8"/>
<path d="M34.0113 5.48352L34.5208 6.52496L35.6727 6.69358L34.845 7.50464L35.0397 8.64939L34.0113 8.1067L32.9818 8.64939L33.1765 7.50464L32.3477 6.69358L33.4995 6.52496L34.0113 5.48352Z" fill="#E6E7E8"/>
<path d="M34.0113 9.25836L34.5208 10.3057L35.6727 10.4815L34.845 11.2866L35.0397 12.4302L34.0113 11.8887L32.9818 12.4302L33.1765 11.2866L32.3477 10.4815L33.4995 10.3057L34.0113 9.25836Z" fill="#E6E7E8"/>
<path d="M34.0113 13.0469L34.5208 14.0919L35.6727 14.2581L34.845 15.068L35.0397 16.2127L34.0113 15.6736L32.9818 16.2127L33.1765 15.068L32.3477 14.2581L33.4995 14.0919L34.0113 13.0469Z" fill="#E6E7E8"/>
<path d="M29.7341 5.48352L30.2531 6.52496L31.4014 6.69358L30.5701 7.50464L30.7649 8.64939L29.7341 8.1067L28.7129 8.64939L28.9041 7.50464L28.0752 6.69358L29.2235 6.52496L29.7341 5.48352Z" fill="#E6E7E8"/>
<path d="M29.7341 9.25836L30.2531 10.3057L31.4014 10.4815L30.5701 11.2866L30.7649 12.4302L29.7341 11.8887L28.7129 12.4302L28.9041 11.2866L28.0752 10.4815L29.2235 10.3057L29.7341 9.25836Z" fill="#E6E7E8"/>
<path d="M29.7341 13.0469L30.2531 14.0919L31.4014 14.2581L30.5701 15.068L30.7649 16.2127L29.7341 15.6736L28.7129 16.2127L28.9041 15.068L28.0752 14.2581L29.2235 14.0919L29.7341 13.0469Z" fill="#E6E7E8"/>
<path d="M25.4658 5.48352L25.9788 6.52496L27.1307 6.69358L26.2911 7.50464L26.4954 8.64939L25.4658 8.1067L24.435 8.64939L24.6346 7.50464L23.7974 6.69358L24.9492 6.52496L25.4658 5.48352Z" fill="#E6E7E8"/>
<path d="M25.4658 9.25836L25.9788 10.3057L27.1307 10.4815L26.2911 11.2866L26.4954 12.4302L25.4658 11.8887L24.435 12.4302L24.6346 11.2866L23.7974 10.4815L24.9492 10.3057L25.4658 9.25836Z" fill="#E6E7E8"/>
<path d="M25.4658 13.0469L25.9788 14.0919L27.1307 14.2581L26.2911 15.068L26.4954 16.2127L25.4658 15.6736L24.435 16.2127L24.6346 15.068L23.7974 14.2581L24.9492 14.0919L25.4658 13.0469Z" fill="#E6E7E8"/>
<path d="M21.1924 9.25836L21.7066 10.3057L22.8561 10.4815L22.0249 11.2866L22.2232 12.4302L21.1924 11.8887L20.1629 12.4302L20.3647 11.2866L19.5264 10.4815L20.6794 10.3057L21.1924 9.25836Z" fill="#E6E7E8"/>
<path d="M21.1924 13.0469L21.7066 14.0919L22.8561 14.2581L22.0249 15.068L22.2232 16.2127L21.1924 15.6736L20.1629 16.2127L20.3647 15.068L19.5264 14.2581L20.6794 14.0919L21.1924 13.0469Z" fill="#E6E7E8"/>
<path d="M16.8981 13.0469L17.4123 14.0919L18.5641 14.2581L17.7317 15.068L17.9312 16.2127L16.8981 15.6736L15.8685 16.2127L16.0656 15.068L15.2344 14.2581L16.3839 14.0919L16.8981 13.0469Z" fill="#E6E7E8"/>
<path d="M0 18.6875H76V21.0625H0V18.6875Z" fill="#EC1C24"/>
<path d="M0 34.125H76V36.5H0V34.125Z" fill="#EC1C24"/>
</svg>

<svg width="76" height="54" viewBox="0 0 76 54" fill="none" xmlns="http://www.w3.org/2000/svg"><path d="M0 18.688h76v16.625H0V18.686z" fill="#E6E7E8"/><path d="M64.125.875h-52.25C4.005.875 0 6.723 0 13.938v4.75h76v-4.75C76 6.723 71.995.874 64.125.874z" fill="#1B75BB"/><path d="M0 40.063c0 7.214 4.005 13.062 11.875 13.062h52.25c7.87 0 11.875-5.848 11.875-13.063v-4.75H0v4.75z" fill="#29B473"/><path d="M13.598 15.494a4.64 4.64 0 01-4.641-4.643 4.643 4.643 0 014.64-4.645c.176 0 .352.013.522.034a5.338 5.338 0 00-2.725-.752 5.364 5.364 0 000 10.725c.959 0 1.9-.26 2.725-.75a5 5 0 01-.521.03zm20.413-10.01l.51 1.041 1.152.169-.828.81.195 1.145-1.029-.542-1.03.542.195-1.144-.828-.811 1.151-.169.512-1.041zm0 3.774l.51 1.048 1.152.176-.828.805.195 1.143-1.029-.541-1.03.541.195-1.143-.828-.806 1.151-.175.512-1.048zm0 3.789l.51 1.045 1.152.166-.828.81.195 1.145-1.029-.54-1.03.54.195-1.145-.828-.81 1.151-.166.512-1.045zm-4.277-7.563l.52 1.041 1.147.169-.83.81.194 1.145-1.03-.542-1.022.542.191-1.144-.829-.811 1.149-.169.51-1.041zm0 3.774l.52 1.048 1.147.176-.83.805.194 1.143-1.03-.541-1.022.541.191-1.143-.829-.806 1.149-.175.51-1.048zm0 3.789l.52 1.045 1.147.166-.83.81.194 1.145-1.03-.54-1.022.54.191-1.145-.829-.81 1.149-.166.51-1.045zm-4.268-7.563l.513 1.041 1.152.169-.84.81.204 1.145-1.03-.542-1.03.542.2-1.144-.838-.811 1.152-.169.517-1.041zm0 3.774l.513 1.048 1.152.176-.84.805.204 1.143-1.03-.541-1.03.541.2-1.143-.838-.806 1.152-.175.517-1.048zm0 3.789l.513 1.045 1.152.166-.84.81.204 1.145-1.03-.54-1.03.54.2-1.145-.838-.81 1.152-.166.517-1.045zm-4.274-3.789l.515 1.048 1.15.176-.832.805.198 1.143-1.03-.541-1.03.541.202-1.143-.839-.806 1.153-.175.513-1.048zm0 3.789l.515 1.045 1.15.166-.832.81.198 1.145-1.03-.54-1.03.54.202-1.145-.839-.81 1.153-.166.513-1.045zm-4.294 0l.514 1.045 1.152.166-.832.81.2 1.145-1.034-.54-1.03.54.198-1.145-.832-.81 1.15-.166.514-1.045z" fill="#E6E7E8"/><path d="M0 18.688h76v2.375H0v-2.375zm0 15.437h76V36.5H0v-2.375z" fill="#EC1C24"/></svg>
